svg/u1f456.svg

<svg viewBox="0 0 128 128" xmlns="http://www.w3.org/2000/svg">
  <g>
    <path d="M94.77,5.4c-0.1-0.82-0.76-1.48-1.66-1.39C88.47,4.46,74.77,4.86,64,4.95s-24.47-0.5-29.11-0.94 C34,3.92,33.33,4.58,33.23,5.4c-0.77,6.29-0.43,27.8-0.43,27.8s0.03,29.74,0.03,40.44c0,10.7,1.98,46.94,1.98,46.94 c6.62,4.65,18.83,2.8,22.12-0.15c0,0,1.55-31.73,1.96-44.02c0.5-15.18,2.96-35.78,3.24-37.14c0.23-1.17,1.1-1.51,1.87-1.51 c0.77,0,1.64,0.34,1.87,1.51c0.27,1.36,2.73,21.96,3.24,37.14c0.41,12.29,1.96,44.02,1.96,44.02c3.29,2.95,15.5,4.8,22.12,0.15 c0,0,1.98-36.23,1.98-46.94c0-10.7,0.03-40.44,0.03-40.44S95.54,11.7,94.77,5.4z" fill="#174DA1"/>
    <radialGradient id="SVGID_1_" cx="86.0991" cy="21.4032" gradientUnits="userSpaceOnUse" r="9.6713">
      <stop offset="0" stop-color="#1976D2"/>
      <stop offset="0.9486" stop-color="#1976D2" stop-opacity="0.0514"/>
      <stop offset="1" stop-color="#1976D2" stop-opacity="0"/>
    </radialGradient>
    <path d="M91.4,24.04c-1.24,0.07-4-0.33-6.96-3.11c-3.4-3.19-3.16-7.87-3.16-7.87l0.8-0.25 c0.01,0.04,0.73,4.45,3.88,7.4c3.5,3.28,6.53,2.84,6.57,2.83c0,0,0.76-0.11,1.26-0.35S93.66,23.92,91.4,24.04z" fill="url(#SVGID_1_)"/>
    <radialGradient id="SVGID_2_" cx="60.7201" cy="21.4032" gradientTransform="matrix(-1 0 0 1 102.6787 0)" gradientUnits="userSpaceOnUse" r="9.6713">
      <stop offset="0" stop-color="#1976D2"/>
      <stop offset="0.9486" stop-color="#1976D2" stop-opacity="0.0514"/>
      <stop offset="1" stop-color="#1976D2" stop-opacity="0"/>
    </radialGradient>
    <path d="M36.66,24.04c1.24,0.07,4-0.33,6.96-3.11c3.4-3.19,3.16-7.87,3.16-7.87l-0.8-0.25 c-0.01,0.04-0.73,4.45-3.88,7.4c-3.5,3.28-6.53,2.84-6.57,2.83c0,0-0.76-0.11-1.26-0.35C33.76,22.46,34.4,23.92,36.66,24.04z" fill="url(#SVGID_2_)"/>
    <path d="M63.35,14.03c-17.04,0-30.47-2.72-30.47-2.72l0.03-1.13c0,0,13.65,1.95,30.44,1.95 c16.84,0,30.03-2.03,31.72-2.29l0.04,1.18C94.98,11.03,80.36,14.03,63.35,14.03z" fill="#10356E"/>
    <radialGradient id="SVGID_3_" cx="93.2062" cy="12.5557" gradientTransform="matrix(0.9441 -0.3297 0.551 1.5776 -1.7055 23.4811)" gradientUnits="userSpaceOnUse" r="11.2084">
      <stop offset="0.4998" stop-color="#10356E" stop-opacity="0"/>
      <stop offset="0.91" stop-color="#10356E"/>
    </radialGradient>
    <path d="M94.51,21.23l0.6-10.47l-12.96,1.73c0,0,0.67,5.54,4.65,8.46c0.9,0.66,1.9,1.19,2.86,1.61 C91.8,23.48,94.32,23.54,94.51,21.23z" fill="url(#SVGID_3_)"/>
    <radialGradient id="SVGID_4_" cx="50.8542" cy="12.5557" gradientTransform="matrix(-0.9441 -0.3297 -0.551 1.5776 89.7163 9.5164)" gradientUnits="userSpaceOnUse" r="11.2084">
      <stop offset="0.4998" stop-color="#10356E" stop-opacity="0"/>
      <stop offset="0.91" stop-color="#10356E"/>
    </radialGradient>
    <path d="M33.49,21.23l-0.6-10.47l12.96,1.73c0,0-0.67,5.54-4.65,8.46c-0.9,0.66-1.9,1.19-2.86,1.61 C36.2,23.48,33.67,23.54,33.49,21.23z" fill="url(#SVGID_4_)"/>
    <path d="M68.59,7.43c0.17,0.01,0.34,0.03,0.47,0.13c0.11,0.08,0.17,0.21,0.23,0.34 c0.11,0.26,0.18,0.52,0.22,0.8c0.01,0.07,0.02,0.14-0.02,0.2C69.45,8.96,69.37,8.98,69.3,9c-1.46,0.37-2.97,0.59-4.47,0.65 c-0.19,0.01-0.39,0.01-0.54-0.1c-0.14-0.11-0.2-0.29-0.23-0.46C63.6,6.56,67.03,7.32,68.59,7.43z" fill="#10356E"/>
    <g>
      <linearGradient id="SVGID_5_" gradientUnits="userSpaceOnUse" x1="63.5832" x2="63.9998" y1="8.9941" y2="28.0854">
        <stop offset="0" stop-color="#1976D2"/>
        <stop offset="0.9486" stop-color="#1976D2" stop-opacity="0.0514"/>
        <stop offset="1" stop-color="#1976D2" stop-opacity="0"/>
      </linearGradient>
      <path d="M59.49,27.75c-0.19-1.89-0.41-19.12-0.31-20.31c0.14-1.72,0.5-2.36,1.55-2.49 c2.33-0.28,3.45-0.2,4.58-0.23c0.46,0.03,2.35,0.17,2.76,0.13C60,5.64,60.81,5.76,60.9,11.4c0.08,4.71,0.08,16.18,0.14,19.75 C61.06,31.84,59.84,31.28,59.49,27.75z" fill="url(#SVGID_5_)"/>
    </g>
    <circle cx="64.32" cy="8.74" r="2.18" fill="#94D1E0"/>
    <radialGradient id="SVGID_6_" cx="47.0498" cy="56.0625" gradientTransform="matrix(1.0247 0.0826 -0.1994 2.4732 8.8092 -86.828)" gradientUnits="userSpaceOnUse" r="10.2974">
      <stop offset="0" stop-color="#BBDEFB" stop-opacity="0.3"/>
      <stop offset="1" stop-color="#BBDEFB" stop-opacity="0"/>
    </radialGradient>
    <path d="M56.17,56.54c-1.17,14.54-6.75,25.96-12.45,25.5s-9.38-12.62-8.2-27.17 c1.17-14.54,6.75-25.96,12.45-25.5S57.34,42,56.17,56.54z" fill="url(#SVGID_6_)"/>
    <radialGradient id="SVGID_7_" cx="86.5649" cy="52.7113" gradientTransform="matrix(-1.0247 0.0826 0.1994 2.4732 160.3497 -81.8039)" gradientUnits="userSpaceOnUse" r="10.2974">
      <stop offset="0" stop-color="#BBDEFB" stop-opacity="0.3"/>
      <stop offset="1" stop-color="#BBDEFB" stop-opacity="0"/>
    </radialGradient>
    <path d="M71.83,56.54c1.17,14.54,6.75,25.96,12.45,25.5s9.38-12.62,8.2-27.17 c-1.17-14.54-6.75-25.96-12.45-25.5C74.33,29.84,70.66,42,71.83,56.54z" fill="url(#SVGID_7_)"/>
    <g>
      <linearGradient id="SVGID_8_" gradientUnits="userSpaceOnUse" x1="87.1466" x2="73.8174" y1="27.3107" y2="32.2166">
        <stop offset="0" stop-color="#10356E" stop-opacity="0"/>
        <stop offset="1" stop-color="#10356E"/>
      </linearGradient>
      <path d="M70.86,33.2c0,0,3.04-2.82,7.9-4.38c5.15-1.65,8.81-1.29,8.81-1.29s-3.36,2.4-7.69,4.04 C75.55,33.23,70.86,33.2,70.86,33.2z" fill="url(#SVGID_8_)"/>
    </g>
    <g>
      <linearGradient id="SVGID_9_" gradientTransform="matrix(0.9933 0.1154 -0.1154 0.9933 3.7469 -5.5581)" gradientUnits="userSpaceOnUse" x1="41.5314" x2="54.3052" y1="26.0452" y2="30.5808">
        <stop offset="0" stop-color="#10356E" stop-opacity="0"/>
        <stop offset="1" stop-color="#10356E"/>
      </linearGradient>
      <path d="M49.98,30.41c-4.21-1.9-6.77-4.85-6.77-4.85s2.89,0.25,7.16,2.28s6.95,4.98,7.38,5.37 C57.46,32.98,54.19,32.31,49.98,30.41z" fill="url(#SVGID_9_)"/>
    </g>
    <linearGradient id="SVGID_10_" gradientTransform="matrix(0.9887 -0.1496 0.1496 0.9887 -4.3831 7.1162)" gradientUnits="userSpaceOnUse" x1="34.1153" x2="50.7768" y1="28.4282" y2="36.2035">
      <stop offset="0" stop-color="#10356E" stop-opacity="0"/>
      <stop offset="1" stop-color="#10356E"/>
    </linearGradient>
    <path d="M43.72,35.64c-4.85-1.59-7.44-7.2-7.65-7.34c5.67,3.86,12.12,6.1,18.88,7.23 C54.95,35.53,49.45,37.52,43.72,35.64z" fill="url(#SVGID_10_)"/>
    <path d="M63.17,31.27c-0.52,0.29-1.01,0.13-0.38-0.47c0.64-0.6,2.5-2.68,2.94-3.29 c0.45-0.61,0.53-1.67,0.53-2.99V12.89h1.51v11.62c0,1.63,0.28,3.22-1.13,4.3C65.55,29.64,63.69,30.97,63.17,31.27z" fill="#10356E"/>
    <path d="M45.08,116.87c-4.81,0-10.55-1.6-10.55-1.6l-0.02-1.79c0,0,5.87,1.12,10.24,1.06 c5.25-0.08,12.48-1.29,12.48-1.29l-0.02,1.67C57.2,114.93,49.97,116.87,45.08,116.87z" fill="#10356E"/>
    <path d="M57.89,121.44c0,0.45-0.3,0.84-0.74,0.94c-1.9,0.46-7.18,1.62-12.08,1.62 c-4.81,0-9.25-1.12-10.93-1.59c-0.42-0.12-0.71-0.5-0.71-0.93v-5.7c0-0.66,0.44-1.17,1.06-0.97c1.86,0.61,5.79,1.44,10.16,1.38 c5.25-0.08,9.03-0.62,12.56-1.61c0.58-0.16,0.67,0.38,0.67,0.98V121.44z" fill="#64B5F6"/>
    <path d="M82.88,116.87c4.81,0,10.55-1.6,10.55-1.6l0.02-1.79c0,0-5.87,1.12-10.24,1.06 c-5.25-0.08-12.48-1.29-12.48-1.29l0.02,1.67C70.75,114.93,77.98,116.87,82.88,116.87z" fill="#10356E"/>
    <path d="M70.06,121.44c0,0.45,0.3,0.84,0.74,0.94c1.9,0.46,7.18,1.62,12.08,1.62 c4.81,0,9.25-1.12,10.93-1.59c0.42-0.12,0.71-0.5,0.71-0.93v-5.7c0-0.66-0.44-1.17-1.06-0.97c-1.86,0.61-5.79,1.44-10.16,1.38 c-5.25-0.08-9.03-0.62-12.56-1.61c-0.58-0.16-0.67,0.38-0.67,0.98V121.44z" fill="#64B5F6"/>
  </g>
</svg>

<svg viewBox="0 0 128 128" xmlns="http://www.w3.org/2000/svg">
  <defs>
    <linearGradient id="SVGID_10_" gradientTransform="matrix(0.9887 -0.1496 0.1496 0.9887 0 0)" gradientUnits="userSpaceOnUse" x1="28.716648" x2="45.378148" y1="34.808863" y2="42.584163">
      <stop offset="0" stop-color="#10356E" stop-opacity="0"/>
      <stop offset="1" stop-color="#10356E"/>
    </linearGradient>
    <radialGradient id="SVGID_1_" cx="86.0991" cy="21.4032" gradientUnits="userSpaceOnUse" r="9.6713">
      <stop offset="0" stop-color="#1976D2"/>
      <stop offset="0.9486" stop-color="#1976D2" stop-opacity="0.0514"/>
      <stop offset="1" stop-color="#1976D2" stop-opacity="0"/>
    </radialGradient>
    <radialGradient id="SVGID_2_" cx="-41.9586" cy="21.4032" gradientTransform="matrix(-1 0 0 1 0 0)" gradientUnits="userSpaceOnUse" r="9.6713">
      <stop offset="0" stop-color="#1976D2"/>
      <stop offset="0.9486" stop-color="#1976D2" stop-opacity="0.0514"/>
      <stop offset="1" stop-color="#1976D2" stop-opacity="0"/>
    </radialGradient>
    <radialGradient id="SVGID_3_" cx="83.853738" cy="25.485209" gradientTransform="matrix(0.9441 -0.3297 0.551 1.5776 0 0)" gradientUnits="userSpaceOnUse" r="11.2084">
      <stop offset="0.4998" stop-color="#10356E" stop-opacity="0"/>
      <stop offset="0.91" stop-color="#10356E"/>
    </radialGradient>
    <radialGradient id="SVGID_4_" cx="-36.98136" cy="0.231293" gradientTransform="matrix(-0.9441 -0.3297 -0.551 1.5776 0 0)" gradientUnits="userSpaceOnUse" r="11.2084">
      <stop offset="0.4998" stop-color="#10356E" stop-opacity="0"/>
      <stop offset="0.91" stop-color="#10356E"/>
    </radialGradient>
    <linearGradient id="SVGID_5_" gradientUnits="userSpaceOnUse" x1="63.5832" x2="63.9998" y1="8.9941" y2="28.0854">
      <stop offset="0" stop-color="#1976D2"/>
      <stop offset="0.9486" stop-color="#1976D2" stop-opacity="0.0514"/>
      <stop offset="1" stop-color="#1976D2" stop-opacity="0"/>
    </linearGradient>
    <radialGradient id="SVGID_6_" cx="48.803557" cy="20.896375" gradientTransform="matrix(1.0247 0.0826 -0.1994 2.4732 0 0)" gradientUnits="userSpaceOnUse" r="10.2974">
      <stop offset="0" stop-color="#BBDEFB" stop-opacity="0.3"/>
      <stop offset="1" stop-color="#BBDEFB" stop-opacity="0"/>
    </radialGradient>
    <radialGradient id="SVGID_7_" cx="-75.304042" cy="25.041267" gradientTransform="matrix(-1.0247 0.0826 0.1994 2.4732 0 0)" gradientUnits="userSpaceOnUse" r="10.2974">
      <stop offset="0" stop-color="#BBDEFB" stop-opacity="0.3"/>
      <stop offset="1" stop-color="#BBDEFB" stop-opacity="0"/>
    </radialGradient>
    <linearGradient id="SVGID_8_" gradientUnits="userSpaceOnUse" x1="87.1466" x2="73.8174" y1="27.3107" y2="32.2166">
      <stop offset="0" stop-color="#10356E" stop-opacity="0"/>
      <stop offset="1" stop-color="#10356E"/>
    </linearGradient>
    <linearGradient id="SVGID_9_" gradientTransform="matrix(0.9933 0.1154 -0.1154 0.9933 0 0)" gradientUnits="userSpaceOnUse" x1="44.611908" x2="57.385708" y1="20.091721" y2="24.627321">
      <stop offset="0" stop-color="#10356E" stop-opacity="0"/>
      <stop offset="1" stop-color="#10356E"/>
    </linearGradient>
  </defs>
  <path d="M94.77,5.4 C94.67,4.58 94.01,3.92 93.11,4.01 C88.47,4.46 74.77,4.86 64,4.95 C53.23,5.04 39.53,4.45 34.89,4.01 C34,3.92 33.33,4.58 33.23,5.4 C32.46,11.69 32.8,33.2 32.8,33.2 C32.8,33.2 32.83,62.94 32.83,73.64 C32.83,84.34 34.81,120.58 34.81,120.58 C41.43,125.23 53.64,123.38 56.93,120.43 C56.93,120.43 58.48,88.7 58.89,76.41 C59.39,61.23 61.85,40.63 62.13,39.27 C62.36,38.1 63.23,37.76 64,37.76 C64.77,37.76 65.64,38.1 65.87,39.27 C66.14,40.63 68.6,61.23 69.11,76.41 C69.52,88.7 71.07,120.43 71.07,120.43 C74.36,123.38 86.57,125.23 93.19,120.58 C93.19,120.58 95.17,84.35 95.17,73.64 C95.17,62.94 95.2,33.2 95.2,33.2 C95.2,33.2 95.54,11.7 94.77,5.4 Z" fill="#174DA1"/>
  <path d="M91.4,24.04 C90.16,24.11 87.4,23.71 84.44,20.93 C81.04,17.74 81.28,13.06 81.28,13.06 L82.08,12.81 C82.09,12.85 82.81,17.26 85.96,20.21 C89.46,23.49 92.49,23.05 92.53,23.04 C92.53,23.04 93.29,22.93 93.79,22.69 C94.29,22.45 93.66,23.92 91.4,24.04 Z" fill="url(#SVGID_1_)"/>
  <path d="M36.66,24.04 C37.9,24.11 40.66,23.71 43.62,20.93 C47.02,17.74 46.78,13.06 46.78,13.06 L45.98,12.81 C45.97,12.85 45.25,17.26 42.1,20.21 C38.6,23.49 35.57,23.05 35.53,23.04 C35.53,23.04 34.77,22.93 34.27,22.69 C33.76,22.46 34.4,23.92 36.66,24.04 Z" fill="url(#SVGID_2_)"/>
  <path d="M63.35,14.03 C46.31,14.03 32.88,11.31 32.88,11.31 L32.91,10.18 C32.91,10.18 46.56,12.13 63.35,12.13 C80.19,12.13 93.38,10.1 95.07,9.84 L95.11,11.02 C94.98,11.03 80.36,14.03 63.35,14.03 Z" fill="#10356E"/>
  <path d="M94.51,21.23 L95.11,10.76 L82.15,12.49 C82.15,12.49 82.82,18.03 86.8,20.95 C87.7,21.61 88.7,22.14 89.66,22.56 C91.8,23.48 94.32,23.54 94.51,21.23 Z" fill="url(#SVGID_3_)"/>
  <path d="M33.49,21.23 L32.89,10.76 L45.85,12.49 C45.85,12.49 45.18,18.03 41.2,20.95 C40.3,21.61 39.3,22.14 38.34,22.56 C36.2,23.48 33.67,23.54 33.49,21.23 Z" fill="url(#SVGID_4_)"/>
  <path d="M68.59,7.43 C68.76,7.44 68.93,7.46 69.06,7.56 C69.17,7.64 69.23,7.77 69.29,7.9 C69.4,8.16 69.47,8.42 69.51,8.7 C69.52,8.77 69.53,8.84 69.49,8.9 C69.45,8.96 69.37,8.98 69.3,9 C67.84,9.37 66.33,9.59 64.83,9.65 C64.64,9.66 64.44,9.66 64.29,9.55 C64.15,9.44 64.09,9.26 64.06,9.09 C63.6,6.56 67.03,7.32 68.59,7.43 Z" fill="#10356E"/>
  <path d="M59.49,27.75 C59.3,25.86 59.08,8.63 59.18,7.44 C59.32,5.72 59.68,5.08 60.73,4.95 C63.06,4.67 64.18,4.75 65.31,4.72 C65.77,4.75 67.66,4.89 68.07,4.85 C60,5.64 60.81,5.76 60.9,11.4 C60.98,16.11 60.98,27.58 61.04,31.15 C61.06,31.84 59.84,31.28 59.49,27.75 Z" fill="url(#SVGID_5_)"/>
  <path d="M66.5,8.74 A2.18 2.18 0 1 1 62.14,8.74 A2.18 2.18 0 1 1 66.5,8.74 Z" fill="#94D1E0"/>
  <path d="M56.17,56.54 C55,71.08 49.42,82.5 43.72,82.04 C38.02,81.58 34.34,69.42 35.52,54.87 C36.69,40.33 42.27,28.91 47.97,29.37 C53.67,29.83 57.34,42 56.17,56.54 Z" fill="url(#SVGID_6_)"/>
  <path d="M71.83,56.54 C73,71.08 78.58,82.5 84.28,82.04 C89.98,81.58 93.66,69.42 92.48,54.87 C91.31,40.33 85.73,28.91 80.03,29.37 C74.33,29.84 70.66,42 71.83,56.54 Z" fill="url(#SVGID_7_)"/>
  <path d="M70.86,33.2 C70.86,33.2 73.9,30.38 78.76,28.82 C83.91,27.17 87.57,27.53 87.57,27.53 C87.57,27.53 84.21,29.93 79.88,31.57 C75.55,33.23 70.86,33.2 70.86,33.2 Z" fill="url(#SVGID_8_)"/>
  <path d="M49.98,30.41 C45.77,28.51 43.21,25.56 43.21,25.56 C43.21,25.56 46.1,25.81 50.37,27.84 C54.64,29.87 57.32,32.82 57.75,33.21 C57.46,32.98 54.19,32.31 49.98,30.41 Z" fill="url(#SVGID_9_)"/>
  <path d="M43.72,35.64 C38.87,34.05 36.28,28.44 36.07,28.3 C41.74,32.16 48.19,34.4 54.95,35.53 C54.95,35.53 49.45,37.52 43.72,35.64 Z" fill="url(#SVGID_10_)"/>
  <path d="M63.17,31.27 C62.65,31.56 62.16,31.4 62.79,30.8 C63.43,30.2 65.29,28.12 65.73,27.51 C66.18,26.9 66.26,25.84 66.26,24.52 L66.26,12.89 L67.77,12.89 L67.77,24.51 C67.77,26.14 68.05,27.73 66.64,28.81 C65.55,29.64 63.69,30.97 63.17,31.27 Z" fill="#10356E"/>
  <path d="M45.08,116.87 C40.27,116.87 34.53,115.27 34.53,115.27 L34.51,113.48 C34.51,113.48 40.38,114.6 44.75,114.54 C50,114.46 57.23,113.25 57.23,113.25 L57.21,114.92 C57.2,114.93 49.97,116.87 45.08,116.87 Z" fill="#10356E"/>
  <path d="M57.89,121.44 C57.89,121.89 57.59,122.28 57.15,122.38 C55.25,122.84 49.97,124 45.07,124 C40.26,124 35.82,122.88 34.14,122.41 C33.72,122.29 33.43,121.91 33.43,121.48 L33.43,115.78 C33.43,115.12 33.87,114.61 34.49,114.81 C36.35,115.42 40.28,116.25 44.65,116.19 C49.9,116.11 53.68,115.57 57.21,114.58 C57.79,114.42 57.88,114.96 57.88,115.56 L57.88,121.44 Z" fill="#64B5F6"/>
  <path d="M82.88,116.87 C87.69,116.87 93.43,115.27 93.43,115.27 L93.45,113.48 C93.45,113.48 87.58,114.6 83.21,114.54 C77.96,114.46 70.73,113.25 70.73,113.25 L70.75,114.92 C70.75,114.93 77.98,116.87 82.88,116.87 Z" fill="#10356E"/>
  <path d="M70.06,121.44 C70.06,121.89 70.36,122.28 70.8,122.38 C72.7,122.84 77.98,124 82.88,124 C87.69,124 92.13,122.88 93.81,122.41 C94.23,122.29 94.52,121.91 94.52,121.48 L94.52,115.78 C94.52,115.12 94.08,114.61 93.46,114.81 C91.6,115.42 87.67,116.25 83.3,116.19 C78.05,116.11 74.27,115.57 70.74,114.58 C70.16,114.42 70.07,114.96 70.07,115.56 L70.07,121.44 Z" fill="#64B5F6"/>
</svg>
